packages/icons/raw/imported/FilesFile.svg

<svg width="32" height="32" viewBox="0 0 32 32" fill="none" xmlns="http://www.w3.org/2000/svg">
<path d="M8.50002 11.6154L8.15109 11.2573C8.0545 11.3514 8.00003 11.4805 8.00002 11.6154L8.50002 11.6154ZM13.75 6.5V6C13.6197 6 13.4944 6.05091 13.4011 6.14189L13.75 6.5ZM23.5 9.42308H23H23.5ZM23.5 22.5769H24H23.5ZM8.5 22.5769L9 22.5769L8.5 22.5769ZM14.5 12.3462V12.8462C14.7761 12.8462 15 12.6223 15 12.3462H14.5ZM8.50002 12.3462L8.00002 12.3462V12.3462L8.50002 12.3462ZM8.84896 11.9735L14.0989 6.85811L13.4011 6.14189L8.15109 11.2573L8.84896 11.9735ZM11.5 26H20.5V25H11.5V26ZM23 9.42308L23 22.5769H24L24 9.42308H23ZM11.5 25C10.107 25 9 23.903 9 22.5769L8 22.5769C8 24.4796 9.57932 26 11.5 26V25ZM20.5 26C22.4207 26 24 24.4796 24 22.5769H23C23 23.903 21.893 25 20.5 25V26ZM20.5 7C21.893 7 23 8.09701 23 9.42308H24C24 7.5204 22.4207 6 20.5 6V7ZM13.75 7H14.5V6H13.75V7ZM14.5 7H20.5V6H14.5V7ZM8.00002 11.6154L8.00002 12.3462L9.00002 12.3462L9.00002 11.6154L8.00002 11.6154ZM8.00002 12.3462L8 22.5769L9 22.5769L9.00002 12.3462L8.00002 12.3462ZM14 6.5V12.3462H15V6.5H14ZM14.5 11.8462H8.50002V12.8462H14.5V11.8462Z" fill="black"/>
</svg>

<svg width="32" height="32" fill="none" xmlns="http://www.w3.org/2000/svg"><path d="m8.5 11.615-.349-.358a.5.5 0 0 0-.151.358h.5ZM13.75 6.5V6a.5.5 0 0 0-.349.142l.349.358Zm9.75 2.923H23h.5Zm0 13.154h.5-.5Zm-15 0H9h-.5Zm6-10.23v.5a.5.5 0 0 0 .5-.5h-.5Zm-6 0H8h.5Zm.349-.373 5.25-5.116-.698-.716-5.25 5.115.698.716ZM11.5 26h9v-1h-9v1ZM23 9.423v13.154h1V9.423h-1ZM11.5 25C10.107 25 9 23.903 9 22.577H8C8 24.48 9.58 26 11.5 26v-1Zm9 1c1.92 0 3.5-1.52 3.5-3.423h-1C23 23.903 21.893 25 20.5 25v1Zm0-19C21.893 7 23 8.097 23 9.423h1C24 7.52 22.42 6 20.5 6v1Zm-6.75 0h.75V6h-.75v1Zm.75 0h6V6h-6v1ZM8 11.615v.731h1v-.73H8Zm0 .731v10.23h1v-10.23H8ZM14 6.5v5.846h1V6.5h-1Zm.5 5.346h-6v1h6v-1Z" fill="#000"/></svg>
